X:1
T:God Himself Is with Us
T:Text: Gerhardt Tersteegen, 1729; tr. composite Tune: Joachim Neander, 1680
T:668 668 666 ARNSBERG www.hymnary.org/text/god_himself_is_with_us
T:God Himself Is with Us
T:This hymn is in the public domain. You may freely use this score for personal and congregational worship. If you reproduce the score, please credit Hymnary.org as the source. 
T:This hymn is in the public domain. You may freely use this score for personal and congregational worship. If you reproduce the score, please credit Hymnary.org as the source. 
T:This hymn is in the public domain. You may freely use this score for personal and congregational worship. If you reproduce the score, please credit Hymnary.org as the source. 
Z:This hymn is in the public domain. You may freely use this score for personal and congregational worship. If you reproduce the score, please credit Hymnary.org as the source.
%%score ( 1 2 ) ( 3 4 )
L:1/8
M:4/4
K:G
V:1 treble nm="SOPRANO ALTO" snm="S. A."
V:2 treble 
V:3 bass nm="TENOR BASS" snm="T. B."
V:4 bass 
V:1
"^G""^1""^2""^3" B2 B2 B2 B2 |"^D" A4 A4 |"^Em" G2 G2 G2 G2 |"^B" F4 F4 |"^C" E2 E2"^G" D2 G2 | %5
w: God him- self is|with us;|let us now a-|dore him,|and with awe ap-|
w: God him- self is|with us;|hear the harps re-|sound- ing!|See the crowds the|
w: Fount of ev- ery|bless- ing,|pu- ri- fy my|spir- it,|trust- ing on- ly|
"^D" A2"^G" B2"^D" A4 |"^G" G8 | B2 B2 B2 B2 |1"^D" A4 A4 |"^Em" G2 G2 G2 G2 |"^B" F4 F4 | %11
w: pear be- fore|him.|God is in his|tem- ple;|all with- in keep|si- lence,|
w: throne sur- roun-|ding!|"Ho- ly, ho- ly,|ho- ly,"|hear the hymn as-|cend- ing,|
w: in your mer-|it.|Like the ho- ly|an- gels|who be- hold your|glo- ry,|
"^C" E2 E2"^G" D2 G2 ||"^Page 2""^D" A2"^G" B2"^D" A4 |"^G" G8 | B2 B2"^C" c4 | %15
w: pros- trate lie with|deep- est rev-|erence.|Him a- lone|
w: an- gels, saints, their|voic- es blen-|ding!|Bow your ear|
w: may I cease- less-|ly a- dore|you,|and in all,|
"^D" A2"^God Himself Is with Us" A2"^G" B4 |"^D" d2 d2"^C" c2"^G" B2 |"^D" A4"^G" B4 | %18
w: do we own|as our God and|Sav- ior;|
w: to us here;|hear, O Christ, the|prais- es|
w: great and small,|seek to do most|near- ly|
 d2 d2"^Am" c2 B2 |"^Am7""^D7" A4"^G" G4 |] %20
w: praise his name for-|ev- er.|
w: that your church now|rai- ses.|
w: what you love so|dear- ly.|
V:2
 G2 G2 G2 G2 | G4 F4 | E2 E2 E2 E2 | E4 ^D4 | E2 C2 B,2 E2 | F2 G2 (G2 F2) | D8 | G2 G2 G2 G2 |1 %8
 G4 F4 | E2 E2 E2 E2 | E4 ^D4 | E2 C2 B,2 E2 || F2 G2 (G2 F2) | D8 | D2 D2 E4 | F2 F2 G4 | %16
 F2 G2 G2 G2 | (G2 F2) G4 | G2 G2 E2 G2 | (G2 F2) D4 |] %20
V:3
 D2 D2 D2 D2 | D4 D4 | B,2 B,2 B,2 B,2 | B,4 B,4 | G,2 G,2 G,2 B,2 | D2 D2 D4 | B,8 | %7
 D2 D2 D2 D2 |1 D4 D4 | B,2 B,2 B,2 B,2 | B,4 B,4 | G,2 G,2 G,2 B,2 || D2 D2 D4 | B,8 | %14
 G,2 G,2 G,4 | D2 D2 D4 | D2 D2 E2 D2 | D4 D4 | D2 B,2 C2 D2 | (E2 DC) B,4 |] %20
V:4
 G,2 G,2 B,2 G,2 | D,4 D,4 | E,2 E,2 G,2 E,2 | B,,4 B,,4 | C,2 E,2 G,2 E,2 | D,2 G,2 D,4 | G,,8 | %7
 G,2 G,2 B,2 G,2 |1 D,4 D,4 | E,2 E,2 G,2 E,2 | B,,4 B,,4 | C,2 E,2 G,2 E,2 || D,2 G,2 D,4 | G,,8 | %14
 G,2 G,2 C,4 | D,2 D,2 G,4 | D,2 B,,2 C,2 G,2 | D,4 G,4 | B,,2 G,,2 A,,2 B,,2 | (C,2 D,2) G,4 |] %20

